X: 1
T: Heather Hill
R: reel
C: Dan R MacDonald
N: Handwritten MS labelled "Presented by Jerry Holland Boston Harbor August 2004"
Z: 2015 John Chambers <jc:trillian.mit.edu>
M: 4/4
L: 1/8
K: G
B \
| "G"G2BA BGGB | "(D7)"dedB "G"G2GB | "G"dedB  degd | "C"egdB "D7"A2AB |
| "G"G2BA BGGB | "(D7)"dedB "G"G2GB | "G"dedB  degd | "C"eg"D7"dB "G"G2G :|
|: B \
| "G"gage gdde | "G"gage  degd | "Am"eaab ageg | "Am"abag "C"e2"D7"ef |
| "G"gage gdde | "G"gage  degd | "Am"egab agea | "D7"gedB "G"G2G :|
